docs/.gitbook/assets/icon-edit-shape-16@light.svg

<svg width="32" height="32" viewBox="0 0 16 16" fill="none" xmlns="http://www.w3.org/2000/svg">
<rect x="0" y="0" width="16" height="16" fill="#fff"/>
<path fill-rule="evenodd" clip-rule="evenodd" d="M1 2.75C1 1.7835 1.7835 1 2.75 1H4.25C5.13162 1 5.86097 1.65193 5.98228 2.5H10.0177C10.139 1.65193 10.8684 1 11.75 1H13.25C14.2165 1 15 1.7835 15 2.75V4.25C15 5.13162 14.3481 5.86097 13.5 5.98228V10.0177C14.3481 10.139 15 10.8684 15 11.75V13.25C15 14.2165 14.2165 15 13.25 15H11.75C10.8684 15 10.139 14.3481 10.0177 13.5H5.98228C5.86097 14.3481 5.13162 15 4.25 15H2.75C1.7835 15 1 14.2165 1 13.25V11.75C1 10.8684 1.65193 10.139 2.5 10.0177V5.98228C1.65193 5.86097 1 5.13162 1 4.25V2.75ZM4 6V10H4.25C5.2165 10 6 10.7835 6 11.75V12H10V11.75C10 10.7835 10.7835 10 11.75 10H12V6H11.75C10.7835 6 10 5.2165 10 4.25V4H6V4.25C6 5.2165 5.2165 6 4.25 6H4ZM4.5 3.25V4.25C4.5 4.38807 4.38807 4.5 4.25 4.5H3.25H2.75C2.61193 4.5 2.5 4.38807 2.5 4.25V2.75C2.5 2.61193 2.61193 2.5 2.75 2.5H4.25C4.38807 2.5 4.5 2.61193 4.5 2.75V3.25ZM11.5 3.25V4.25C11.5 4.38807 11.6119 4.5 11.75 4.5H12.75H13.25C13.3881 4.5 13.5 4.38807 13.5 4.25V2.75C13.5 2.61193 13.3881 2.5 13.25 2.5H11.75C11.6119 2.5 11.5 2.61193 11.5 2.75V3.25ZM12.75 11.5H11.75C11.6119 11.5 11.5 11.6119 11.5 11.75V12.75V13.25C11.5 13.3881 11.6119 13.5 11.75 13.5H13.25C13.3881 13.5 13.5 13.3881 13.5 13.25V11.75C13.5 11.6119 13.3881 11.5 13.25 11.5H12.75ZM4.5 12.75V11.75C4.5 11.6119 4.38807 11.5 4.25 11.5H3.25H2.75C2.61193 11.5 2.5 11.6119 2.5 11.75V13.25C2.5 13.3881 2.61193 13.5 2.75 13.5H4.25C4.38807 13.5 4.5 13.3881 4.5 13.25V12.75Z" fill="#000"/>
</svg>

<svg xmlns="http://www.w3.org/2000/svg" width="32" height="32" fill="none" viewBox="0 0 16 16"><path fill="#fff" d="M0 0h16v16H0z"/><path fill="#000" fill-rule="evenodd" d="M1 2.75C1 1.784 1.784 1 2.75 1h1.5a1.75 1.75 0 0 1 1.732 1.5h4.036A1.75 1.75 0 0 1 11.75 1h1.5c.966 0 1.75.784 1.75 1.75v1.5a1.75 1.75 0 0 1-1.5 1.732v4.036c.848.121 1.5.85 1.5 1.732v1.5A1.75 1.75 0 0 1 13.25 15h-1.5a1.75 1.75 0 0 1-1.732-1.5H5.982A1.75 1.75 0 0 1 4.25 15h-1.5A1.75 1.75 0 0 1 1 13.25v-1.5a1.75 1.75 0 0 1 1.5-1.732V5.982A1.75 1.75 0 0 1 1 4.25zM4 6v4h.25c.966 0 1.75.784 1.75 1.75V12h4v-.25c0-.966.784-1.75 1.75-1.75H12V6h-.25A1.75 1.75 0 0 1 10 4.25V4H6v.25A1.75 1.75 0 0 1 4.25 6zm.5-2.75v1a.25.25 0 0 1-.25.25h-1.5a.25.25 0 0 1-.25-.25v-1.5a.25.25 0 0 1 .25-.25h1.5a.25.25 0 0 1 .25.25zm7 0v1c0 .138.112.25.25.25h1.5a.25.25 0 0 0 .25-.25v-1.5a.25.25 0 0 0-.25-.25h-1.5a.25.25 0 0 0-.25.25zm1.25 8.25h-1a.25.25 0 0 0-.25.25v1.5c0 .138.112.25.25.25h1.5a.25.25 0 0 0 .25-.25v-1.5a.25.25 0 0 0-.25-.25zM4.5 12.75v-1a.25.25 0 0 0-.25-.25h-1.5a.25.25 0 0 0-.25.25v1.5c0 .138.112.25.25.25h1.5a.25.25 0 0 0 .25-.25z" clip-rule="evenodd"/></svg>
